app/dist/common/images/arch-capital.svg

<svg height="18" width="18" xmlns="http://www.w3.org/2000/svg"><path d="m0 0h18v18h-18z" fill="#0079bd"/><path d="m9.568 5.761.54 2.509v-4.27l-1.624 2.088zm-2.633.854 2.3 1.263-3.306-2.82.545 2.564zm-1.078 2.374 2.525-.759-4.382.403 2.297 1.371zm1.427 2.692.798-2.444-2.16 3.721 2.473-1.046-1.111-.23zm2.821.485-1.428-2.155 1.57 3.989.75-2.515zm2.278-2.006-2.64-.131 4.257 1.086-1.67-2.057.053 1.101zm-.297-2.877-1.716 1.952 3.484-2.611-2.697.029z" fill="#fff"/></svg>

<!-- by TradingView --><svg width="18" height="18" xmlns="http://www.w3.org/2000/svg"><path fill="#0079BD" d="M0 0h18v18H0z"/><path d="M9.568 5.761l.54 2.509V4L8.484 6.088l1.084-.327zM6.935 6.615l2.3 1.263-3.306-2.82.545 2.564.461-1.007zM5.857 8.989l2.525-.759L4 8.633l2.297 1.371-.44-1.015zM7.284 11.681l.798-2.444-2.16 3.721 2.473-1.046-1.111-.23zM10.105 12.166l-1.428-2.155L10.247 14l.75-2.515-.892.681zM12.383 10.16l-2.64-.131L14 11.115l-1.67-2.057.053 1.101zM12.086 7.283L10.37 9.235l3.484-2.611-2.697.029.929.63z" fill="#fff"/></svg>
